src/assets/logo.svg

<?xml version="1.0" encoding="UTF-8" standalone="no"?>
<!-- Created with Inkscape (http://www.inkscape.org/) -->

<svg
   xmlns:dc="http://purl.org/dc/elements/1.1/"
   xmlns:cc="http://creativecommons.org/ns#"
   xmlns:rdf="http://www.w3.org/1999/02/22-rdf-syntax-ns#"
   xmlns:svg="http://www.w3.org/2000/svg"
   xmlns="http://www.w3.org/2000/svg"
   xmlns:sodipodi="http://sodipodi.sourceforge.net/DTD/sodipodi-0.dtd"
   xmlns:inkscape="http://www.inkscape.org/namespaces/inkscape"
   width="256"
   height="256"
   viewBox="0 0 255.99998 255.99999"
   id="svg2"
   version="1.1"
   inkscape:version="0.92.2 5c3e80d, 2017-08-06"
   sodipodi:docname="logo.svg">
  <defs
     id="defs4" />
  <sodipodi:namedview
     id="base"
     pagecolor="#ffffff"
     bordercolor="#666666"
     borderopacity="1.0"
     inkscape:pageopacity="0.0"
     inkscape:pageshadow="2"
     inkscape:zoom="4"
     inkscape:cx="227.38602"
     inkscape:cy="197.50076"
     inkscape:document-units="px"
     inkscape:current-layer="layer1"
     showgrid="false"
     units="px"
     showguides="false"
     inkscape:guide-bbox="true"
     inkscape:window-width="1680"
     inkscape:window-height="1005"
     inkscape:window-x="0"
     inkscape:window-y="1"
     inkscape:window-maximized="1">
    <sodipodi:guide
       position="127.99999,127.99999"
       orientation="1,0"
       id="guide3365"
       inkscape:label=""
       inkscape:color="rgb(0,0,255)"
       inkscape:locked="false" />
    <sodipodi:guide
       position="127.99999,127.99999"
       orientation="0,1"
       id="guide4239"
       inkscape:label=""
       inkscape:color="rgb(0,0,255)"
       inkscape:locked="false" />
    <sodipodi:guide
       position="0,0"
       orientation="1,0"
       id="guide4241"
       inkscape:label=""
       inkscape:color="rgb(0,0,255)"
       inkscape:locked="false" />
    <sodipodi:guide
       position="0,0"
       orientation="0,1"
       id="guide4243"
       inkscape:label=""
       inkscape:color="rgb(0,0,255)"
       inkscape:locked="false" />
    <sodipodi:guide
       position="255.99998,255.99999"
       orientation="1,0"
       id="guide4245"
       inkscape:label=""
       inkscape:color="rgb(0,0,255)"
       inkscape:locked="false" />
    <sodipodi:guide
       position="0,255.99999"
       orientation="0,1"
       id="guide4249"
       inkscape:label=""
       inkscape:color="rgb(0,0,255)"
       inkscape:locked="false" />
  </sodipodi:namedview>
  <metadata
     id="metadata7">
    <rdf:RDF>
      <cc:Work
         rdf:about="">
        <dc:format>image/svg+xml</dc:format>
        <dc:type
           rdf:resource="http://purl.org/dc/dcmitype/StillImage" />
        <dc:title></dc:title>
      </cc:Work>
    </rdf:RDF>
  </metadata>
  <g
     inkscape:label="Layer 1"
     inkscape:groupmode="layer"
     id="layer1"
     transform="translate(0,-796.36221)">
    <path
       style="fill:#ffffff;fill-opacity:1;stroke:none;stroke-width:1;stroke-opacity:1"
       d="M 0 0 L 0 256 L 256 256 L 256 0 L 0 0 z M 128 16 A 56.04227 56.042344 0 0 1 184.04297 72.042969 L 184.04297 128.50781 A 69.88309 69.883182 0 0 1 197.88281 170.11719 A 69.88309 69.883182 0 0 1 128 240 A 69.88309 69.883182 0 0 1 58.117188 170.11719 A 69.88309 69.883182 0 0 1 71.957031 128.49414 L 71.957031 72.042969 A 56.04227 56.042344 0 0 1 128 16 z M 128 30.009766 A 42.031702 42.031758 0 0 0 85.96875 72.042969 L 85.96875 114.39648 A 69.88309 69.883182 0 0 1 128 100.23242 A 69.88309 69.883182 0 0 1 170.03125 114.36914 L 170.03125 72.042969 A 42.031702 42.031758 0 0 0 128 30.009766 z M 120.99414 121.08008 L 120.99414 128.67969 A 42.031712 42.031768 0 0 0 85.96875 170.11719 A 42.031712 42.031768 0 0 0 128 212.14844 A 42.031712 42.031768 0 0 0 170.03125 170.11719 A 42.031712 42.031768 0 0 0 135.00586 128.71875 L 135.00586 121.08008 L 120.99414 121.08008 z M 120.99414 142.0957 L 135.00586 142.0957 L 135.00586 150.32617 A 21.015852 21.01588 0 0 1 149.01562 170.11719 A 21.015852 21.01588 0 0 1 128 191.13281 A 21.015852 21.01588 0 0 1 106.98438 170.11719 A 21.015852 21.01588 0 0 1 120.99414 150.33008 L 120.99414 142.0957 z "
       transform="translate(0,796.36221)"
       id="rect858" />
  </g>
</svg>

<svg xmlns="http://www.w3.org/2000/svg" width="256" height="256"><path d="M0 0v256h256V0H0zm128 16a56.042 56.042 0 0 1 56.043 56.043v56.465a69.883 69.883 0 0 1 13.84 41.61A69.883 69.883 0 0 1 128 240a69.883 69.883 0 0 1-69.883-69.883 69.883 69.883 0 0 1 13.84-41.623V72.043A56.042 56.042 0 0 1 128 16zm0 14.01a42.032 42.032 0 0 0-42.031 42.033v42.353A69.883 69.883 0 0 1 128 100.232a69.883 69.883 0 0 1 42.031 14.137V72.043A42.032 42.032 0 0 0 128 30.01zm-7.006 91.07v7.6a42.032 42.032 0 0 0-35.025 41.437A42.032 42.032 0 0 0 128 212.148a42.032 42.032 0 0 0 42.031-42.03 42.032 42.032 0 0 0-35.025-41.4v-7.638h-14.012zm0 21.016h14.012v8.23a21.016 21.016 0 0 1 14.01 19.791A21.016 21.016 0 0 1 128 191.133a21.016 21.016 0 0 1-21.016-21.016 21.016 21.016 0 0 1 14.01-19.787v-8.234z" fill="#fff"/></svg>
